X:48
T:Rond de St Vincent: J'ai dix \'epines
R:Breton
M:4/4
G:A instrument - whistle
P:don't play or A whistle: 10-x (don't play)
K:A
B/c/d/e/ | f>f ef dB B/c/d/e/ | f>f ef dB B/c/d/e/ | f>f ef dB ||
 BB | e2 ee d2 de | f>f ef dB ed | c>B Bc dc BB | e2 ee d2 de | f>f ef dB ed | c>B Bc dc :|

